X: 02136
T: WACKER'S FLING
C: Bob McQuillen Oct 75
B: Bob's Note Book 1&2 #136
%R: reel
Z: 2019 John Chambers <jc:trillian.mit.edu>
M: C
L: 1/8
K: Em
GF \
| EB,B,B, EB,B,B, | EB,EF GAGF | EB,B,B, EFGE | DEFG AFDF |
| EB,B,B, EB,B,B, | EB,EF GFGA | Beed    BAGF | GEED E2  :|
|: GA \
| Beed edBA | Beed e2GA | Beed edBG | B2A2 A2GA |
| Beed edBA | Beed e2ge | dede dBAB | GEED E2  :|
%%begintext align
%% For JIM ACHER, who
%% loves the woods as much as I do.
%%endtext

%%sep 1 1 500

%%sep 1 1 500

